X:1
T:Life is all Checkered
L:1/8
M:6/8
I:linebreak $
K:D
V:1 treble 
V:1
 g | dBB BAB | dBB B2 g | dBB BAB | GEE E2 g | dBB BAB | dBB BGA | BcB BGB |1$ GEE E3 :|2 %9
 GEE E2 d |: g3 a3 | bge dBG | g3 a3 | bge edg | bag agf | gfe dBA |$ B3 BAB | GEE E3 :| %18
